src/rounded/icons/fi-rr-flag.svg

<svg id="Layer_1" height="512" viewBox="0 0 24 24" width="512" xmlns="http://www.w3.org/2000/svg" data-name="Layer 1"><path d="m20 4h-5a4 4 0 0 0 -4-4h-7a4 4 0 0 0 -4 4v19a1 1 0 0 0 2 0v-10h8a4 4 0 0 0 4 4h6a4 4 0 0 0 4-4v-5a4 4 0 0 0 -4-4zm-18 7v-7a2 2 0 0 1 2-2h7a2 2 0 0 1 2 2v5a2 2 0 0 1 -2 2zm20 2a2 2 0 0 1 -2 2h-6a2 2 0 0 1 -2-2v-.142a4 4 0 0 0 3-3.858v-3h5a2 2 0 0 1 2 2z"/></svg>

<svg id="Layer_1" data-name="Layer 1" xmlns="http://www.w3.org/2000/svg" viewBox="0 0 24 24"><path d="M20,4H15a4,4,0,0,0-4-4H4A4,4,0,0,0,0,4V23a1,1,0,0,0,2,0V13h8a4,4,0,0,0,4,4h6a4,4,0,0,0,4-4V8A4,4,0,0,0,20,4ZM2,11V4A2,2,0,0,1,4,2h7a2,2,0,0,1,2,2V9a2,2,0,0,1-2,2Zm20,2a2,2,0,0,1-2,2H14a2,2,0,0,1-2-2v-.142A4,4,0,0,0,15,9V6h5a2,2,0,0,1,2,2Z"/></svg>
